storage/app/icons/phosphoricons/bold/film-script-bold.svg

<svg xmlns="http://www.w3.org/2000/svg" fill="currentColor" viewBox="0 0 256 256"><path d="M200 20H56a20 20 0 0 0-20 20v176a20 20 0 0 0 20 20h144a20 20 0 0 0 20-20V40a20 20 0 0 0-20-20m-4 192H60V44h136ZM76 80a16 16 0 1 1 16 16 16 16 0 0 1-16-16m0 96a16 16 0 1 1 16 16 16 16 0 0 1-16-16m0-48a16 16 0 1 1 16 16 16 16 0 0 1-16-16"/></svg>

<svg xmlns="http://www.w3.org/2000/svg" viewBox="0 0 256 256" fill="currentColor"><path d="M200,20H56A20,20,0,0,0,36,40V216a20,20,0,0,0,20,20H200a20,20,0,0,0,20-20V40A20,20,0,0,0,200,20Zm-4,192H60V44H196ZM76,80A16,16,0,1,1,92,96,16,16,0,0,1,76,80Zm0,96a16,16,0,1,1,16,16A16,16,0,0,1,76,176Zm0-48a16,16,0,1,1,16,16A16,16,0,0,1,76,128Z"/></svg>
